static/fa/svgs/solid/list-ol.svg

<svg xmlns="http://www.w3.org/2000/svg" viewBox="0 0 576 512"><!--! Font Awesome Free 6.1.1 by @fontawesome - https://fontawesome.com License - https://fontawesome.com/license/free (Icons: CC BY 4.0, Fonts: SIL OFL 1.1, Code: MIT License) Copyright 2022 Fonticons, Inc.--><path d="M55.1 56.04c0-13.26 11.64-24 24-24h32c14.2 0 24 10.74 24 24V176h16c14.2 0 24 10.8 24 24 0 13.3-9.8 24-24 24h-80c-12.36 0-24-10.7-24-24 0-13.2 11.64-24 24-24h16V80.04h-8c-12.36 0-24-10.75-24-24zm63.6 285.16c-6.6-7.4-18.3-6.9-24.05 1.2l-11.12 15.5c-7.7 10.8-22.69 13.3-33.48 5.6-10.79-7.7-13.28-22.7-5.58-33.4l11.12-15.6c23.74-33.3 72.31-35.7 99.21-4.9 21.3 23.5 20.8 60.9-1.1 84.7L118.8 432H152c13.3 0 24 10.7 24 24s-10.7 24-24 24H64c-9.53 0-18.16-5.6-21.98-14.4-3.83-8.7-2.12-18.9 4.34-25.9l72.04-78c5.3-5.8 5.4-14.6.3-20.5zM512 64c17.7 0 32 14.33 32 32 0 17.7-14.3 32-32 32H256c-17.7 0-32-14.3-32-32 0-17.67 14.3-32 32-32h256zm0 160c17.7 0 32 14.3 32 32s-14.3 32-32 32H256c-17.7 0-32-14.3-32-32s14.3-32 32-32h256zm0 160c17.7 0 32 14.3 32 32s-14.3 32-32 32H256c-17.7 0-32-14.3-32-32s14.3-32 32-32h256z"/></svg>

<svg xmlns="http://www.w3.org/2000/svg" viewBox="0 0 576 512"><!--! Font Awesome Free 6.1.1 by @fontawesome - https://fontawesome.com License - https://fontawesome.com/license/free (Icons: CC BY 4.0, Fonts: SIL OFL 1.1, Code: MIT License) Copyright 2022 Fonticons, Inc. --><path d="M55.1 56.04C55.1 42.78 66.74 32.04 79.1 32.04H111.1C125.3 32.04 135.1 42.78 135.1 56.04V176H151.1C165.3 176 175.1 186.8 175.1 200C175.1 213.3 165.3 224 151.1 224H71.1C58.74 224 47.1 213.3 47.1 200C47.1 186.8 58.74 176 71.1 176H87.1V80.04H79.1C66.74 80.04 55.1 69.29 55.1 56.04V56.04zM118.7 341.2C112.1 333.8 100.4 334.3 94.65 342.4L83.53 357.9C75.83 368.7 60.84 371.2 50.05 363.5C39.26 355.8 36.77 340.8 44.47 330.1L55.59 314.5C79.33 281.2 127.9 278.8 154.8 309.6C176.1 333.1 175.6 370.5 153.7 394.3L118.8 432H152C165.3 432 176 442.7 176 456C176 469.3 165.3 480 152 480H64C54.47 480 45.84 474.4 42.02 465.6C38.19 456.9 39.9 446.7 46.36 439.7L118.4 361.7C123.7 355.9 123.8 347.1 118.7 341.2L118.7 341.2zM512 64C529.7 64 544 78.33 544 96C544 113.7 529.7 128 512 128H256C238.3 128 224 113.7 224 96C224 78.33 238.3 64 256 64H512zM512 224C529.7 224 544 238.3 544 256C544 273.7 529.7 288 512 288H256C238.3 288 224 273.7 224 256C224 238.3 238.3 224 256 224H512zM512 384C529.7 384 544 398.3 544 416C544 433.7 529.7 448 512 448H256C238.3 448 224 433.7 224 416C224 398.3 238.3 384 256 384H512z"/></svg>
